svg/sport/american_football_fill.svg

<?xml version="1.0" encoding="UTF-8"?>
<svg width="24px" height="24px" viewBox="0 0 24 24" version="1.1" xmlns="http://www.w3.org/2000/svg" xmlns:xlink="http://www.w3.org/1999/xlink">
    <title>american_football_fill</title>
    <g id="Icon" stroke="none" stroke-width="1" fill="none" fill-rule="evenodd">
        <g id="Sport" transform="translate(-192.000000, -48.000000)">
            <g id="american_football_fill" transform="translate(192.000000, 48.000000)">
                <path d="M24,0 L24,24 L0,24 L0,0 L24,0 Z M12.5935,23.2578 L12.5819,23.2595 L12.5109,23.295 L12.4919,23.2987 L12.4767,23.295 L12.4057,23.2595 C12.3958,23.2564 12.387,23.259 12.3821,23.2649 L12.378,23.2758 L12.3609,23.7031 L12.3659,23.7235 L12.3769,23.7357 L12.4805,23.8097 L12.4953,23.8136 L12.5071,23.8097 L12.6107,23.7357 L12.6233,23.7197 L12.6267,23.7031 L12.6096,23.2758 C12.6076,23.2657 12.601,23.2593 12.5935,23.2578 Z M12.8584,23.1453 L12.8445,23.1473 L12.6598,23.2397 L12.6499,23.2499 L12.6472,23.2611 L12.6651,23.6906 L12.6699,23.7034 L12.6784,23.7105 L12.8793,23.8032 C12.8914,23.8069 12.9022,23.803 12.9078,23.7952 L12.9118,23.7812 L12.8777,23.1665 C12.8753,23.1546 12.8674,23.147 12.8584,23.1453 Z M12.143,23.1473 C12.1332,23.1424 12.1222,23.1453 12.1156,23.1526 L12.1099,23.1665 L12.0758,23.7812 C12.0751,23.7927 12.0828,23.8019 12.0926,23.8046 L12.1083,23.8032 L12.3092,23.7105 L12.3186,23.7024 L12.3225,23.6906 L12.3404,23.2611 L12.3372,23.2485 L12.3278,23.2397 L12.143,23.1473 Z" id="MingCute" fill-rule="nonzero"></path>
                <path d="M7.45671,5.02719 C7.68204,4.73361 7.91637,4.4565 8.15644,4.19818 C9.07361,5.29922 10.455,6 12,6 C13.545,6 14.9264,5.29922 15.8436,4.19818 C16.0836,4.4565 16.318,4.73361 16.5433,5.02719 C17.8972,6.7913 19,9.24974 19,12 C19,14.7503 17.8972,17.2087 16.5433,18.9728 C16.318,19.2664 16.0836,19.5435 15.8436,19.8018 C14.9264,18.7008 13.545,18 12,18 C10.455,18 9.07362,18.7008 8.15645,19.8018 C7.91637,19.5435 7.68204,19.2664 7.45671,18.9728 C6.10277,17.2087 5,14.7503 5,12 C5,9.24974 6.10277,6.7913 7.45671,5.02719 Z M13,9 C13,8.44772 12.5523,8 12,8 C11.4477,8 11,8.44772 11,9 C10.4477,9 10,9.44772 10,10 C10,10.5523 10.4477,11 11,11 L11,13 C10.4477,13 10,13.4477 10,14 C10,14.5523 10.4477,15 11,15 C11,15.5523 11.4477,16 12,16 C12.5523,16 13,15.5523 13,15 C13.5523,15 14,14.5523 14,14 C14,13.4477 13.5523,13 13,13 L13,11 C13.5523,11 14,10.5523 14,10 C14,9.44772 13.5523,9 13,9 Z M9.66017,21.1223 C10.3834,21.6222 11.2073,22 12,22 C12.7927,22 13.6166,21.6222 14.3398,21.1223 C13.79,20.438 12.9461,20 12,20 C11.0539,20 10.21,20.438 9.66017,21.1223 Z M12,2 C12.7927,2 13.6166,2.37785 14.3398,2.87772 C13.79,3.56201 12.9461,4 12,4 C11.0539,4 10.21,3.56201 9.66017,2.87772 C10.3834,2.37785 11.2073,2 12,2 Z" id="形状" fill="#09244B"></path>
            </g>
        </g>
    </g>
</svg>

<svg xmlns="http://www.w3.org/2000/svg" width="24" height="24"><g fill="none" fill-rule="evenodd"><path d="M24 0v24H0V0h24ZM12.594 23.258l-.012.002-.071.035-.02.004-.014-.004-.071-.036c-.01-.003-.019 0-.024.006l-.004.01-.017.428.005.02.01.013.104.074.015.004.012-.004.104-.074.012-.016.004-.017-.017-.427c-.002-.01-.009-.017-.016-.018Zm.264-.113-.014.002-.184.093-.01.01-.003.011.018.43.005.012.008.008.201.092c.012.004.023 0 .029-.008l.004-.014-.034-.614c-.003-.012-.01-.02-.02-.022Zm-.715.002a.023.023 0 0 0-.027.006l-.006.014-.034.614c0 .012.007.02.017.024l.015-.002.201-.093.01-.008.003-.011.018-.43-.003-.012-.01-.01-.184-.092Z"/><path fill="#09244B" d="M7.457 5.027c.225-.293.46-.57.7-.829A4.99 4.99 0 0 0 12 6a4.99 4.99 0 0 0 3.844-1.802c.24.258.474.536.7.83C17.896 6.79 19 9.25 19 12s-1.103 5.209-2.457 6.973c-.225.293-.46.57-.7.829A4.99 4.99 0 0 0 12 18a4.99 4.99 0 0 0-3.844 1.802c-.24-.258-.474-.536-.7-.83C6.104 17.21 5 14.75 5 12s1.103-5.209 2.457-6.973ZM13 9a1 1 0 1 0-2 0 1 1 0 1 0 0 2v2a1 1 0 1 0 0 2 1 1 0 1 0 2 0 1 1 0 1 0 0-2v-2a1 1 0 1 0 0-2ZM9.66 21.122c.723.5 1.547.878 2.34.878.793 0 1.617-.378 2.34-.878A2.994 2.994 0 0 0 12 20c-.946 0-1.79.438-2.34 1.122ZM12 2c.793 0 1.617.378 2.34.878A2.994 2.994 0 0 1 12 4c-.946 0-1.79-.438-2.34-1.122C10.383 2.378 11.207 2 12 2Z"/></g></svg>
